X:0131
T:"A Soldier Tonight Is our Guest"      (air)      0131
C:Unattributed
C:with spirit
B:O'Neill's Music Of Ireland (The 1850)   Lyon & Healy, Chicago   1903 ed.
Q:1/4=130
Z:FROM O'NEILL'S TO NOTEWORTHY, FROM NOTEWORTHY TO ABC, MIDI AND .TXT BY VINCE BRENNAN 6-21-03 (HTTP://WWW.SOSYOURMOM.COM)
I:abc2nwc
M:3/4
L:1/8
K:A
"_vb"cB|AB c2c2|c3B A2|c2B B2|B4(GA)|(c2A2)F2|E3C E2|F2A2A2|A4(cB)|
AB c2c2|c2B2A2|c3B B2|B4(e3/2d/2)|c3A F2|E2C3E|F2A2A2|A4||
(cB)|A3c e2|A2c2B2|A2f2f2|f4e2|A2c2B2|A2c2B2|A2f2f2|f4(cd)|
e3f e2|e2c2e2|d2B2B2|B4(AB)|c2A2F2|E2C3E|F2A2A2|A4|]
